X:1
T:Lystra, 98.98 D
T:Lystra, 98.98 D
T:John Courtnay, before 1902
T:Public Domain Courtesy of the Cyber Hymnal™
C:John Courtnay, before 1902
Z:Public Domain
Z:Courtesy of the Cyber Hymnal™
%%score ( 1 2 ) ( 3 4 )
L:1/8
Q:1/4=83
M:6/8
K:Eb
V:1 treble 
V:2 treble 
V:3 bass 
V:4 bass 
V:1
 (B/A/) | [EG]>[DF]E [Ee][Ed][Ec] | [EB]3 [Ge]2 [EG] | [DF]>[DG][DF] [EF][EG][E=A] | %4
 [DB]3- [DB]2 (B/A/) | [EG]>[DF]E [Ee][Ed][Ec] | [EB]3 [Ge]2 (d/c/) | [FB]>[DF][DF] F[Fd][Ec] | %8
 [DB]3- [DB]2 [DA] | [DA]>[DA][DA] [Dc][EB][FA] | [EG]3 [EG]2 [EG] | [DF]>[DG][DF] [EF][EG][E=A] | %12
 [DB]3- [DB]2 [FB] | [Fc][FB][FB] [Fd][FB][FB] | [Ee]3 [EB]2 [GB] | [GB]>[Gc][GB] [FB][Gc][Ad] | %16
 [Ge]3- [Ge]2 |] %17
V:2
 E | x2 E x3 | x6 | x6 | x5 F | x2 E x3 | x5 G | x3 F x2 | x6 | x6 | x6 | x6 | x6 | x6 | x6 | x6 | %16
 x5 |] %17
V:3
 [E,A,] | [E,B,]>[E,A,][E,G,] [E,C][E,B,][E,A,] | [E,G,]3 [E,B,]2 [C,C] | %3
 [F,D]>[F,B,][F,B,] [F,=A,][F,B,][F,C] | [B,,B,]3- [B,,B,]2 [D,B,] | %5
 [E,B,]>[E,A,][E,G,] [E,C][E,B,][E,A,] | [E,G,]3 [E,B,]2 [E,C] | %7
 [F,D]>[F,B,][F,B,] [F,=A,]F,[F,A,] | [B,,B,]3- [B,,B,]2 [B,,F,] | %9
 [B,,F,]>[B,,F,][B,,F,] [B,,F,][C,B,][D,B,] | [E,B,]3 [E,B,]2 [E,B,] | %11
 [F,B,]>[F,B,][F,B,] [F,=A,][F,B,][F,C] | B,3- B,2 [B,D] | [B,E][B,D][B,D] [B,D][A,D][A,D] | %14
 [G,B,]3 [G,E]2 [E,E] | [B,E]>[B,E][B,E] [B,D][B,E][B,F] | [E,E]3- [E,E]2 |] %17
V:4
 x | x6 | x6 | x6 | x6 | x6 | x6 | x4 F, x | x6 | x6 | x6 | x6 | B,3- B,2 x | x6 | x6 | x6 | x5 |] %17

